Simply-Purple-Circles/scalable/apps/cantata.svg

<svg xmlns="http://www.w3.org/2000/svg" width="48" height="48" viewBox="0 0 12.7 12.7"><path d="M6.34.07a6.29 6.29 0 0 0-6.29 6.3 6.29 6.29 0 0 0 6.3 6.28 6.29 6.29 0 0 0 6.28-6.29A6.29 6.29 0 0 0 6.34.07zm-.01.94a5.4 5.4 0 0 1 5.4 5.4 5.4 5.4 0 0 1-5.4 5.41 5.4 5.4 0 0 1-5.41-5.4A5.4 5.4 0 0 1 6.32 1zm-.1.6a4.74 4.74 0 0 0-4.62 4.77 4.74 4.74 0 0 0 9.48 0A4.74 4.74 0 0 0 6.24 1.6zm.11.9a3.86 3.86 0 1 1 0 7.72 3.86 3.86 0 0 1 0-7.72zm.43.87a.1.1 0 0 0-.06.02c-.18.39-.08.84-.16 1.25L6.4 6.66C5.36 6.2 3.78 6.9 4 7.74c.08.8 1.69 1.25 2.61.7.86-.53.56-1.4.67-2.1l.11-1.88c.45.42 1.08 1.01.53 1.52-.39.23-.05.75.45.54.86-.45.87-1.4.2-1.93-.5-.4-1.07-.75-1.62-1.12-.05-.02-.11-.08-.18-.09z" fill="#963996"/></svg>

<?xml version="1.0" encoding="UTF-8" standalone="no"?>
<svg
   xmlns:dc="http://purl.org/dc/elements/1.1/"
   xmlns:cc="http://creativecommons.org/ns#"
   xmlns:rdf="http://www.w3.org/1999/02/22-rdf-syntax-ns#"
   xmlns:svg="http://www.w3.org/2000/svg"
   xmlns="http://www.w3.org/2000/svg"
   xmlns:sodipodi="http://sodipodi.sourceforge.net/DTD/sodipodi-0.dtd"
   xmlns:inkscape="http://www.inkscape.org/namespaces/inkscape"
   width="48"
   height="48"
   viewBox="0 0 12.7 12.7"
   version="1.1"
   id="svg4"
   sodipodi:docname="cantata.svg"
   inkscape:version="0.92.4 (5da689c313, 2019-01-14)">
  <metadata
     id="metadata10">
    <rdf:RDF>
      <cc:Work
         rdf:about="">
        <dc:format>image/svg+xml</dc:format>
        <dc:type
           rdf:resource="http://purl.org/dc/dcmitype/StillImage" />
        <dc:title></dc:title>
      </cc:Work>
    </rdf:RDF>
  </metadata>
  <defs
     id="defs8" />
  <sodipodi:namedview
     pagecolor="#ffffff"
     bordercolor="#666666"
     borderopacity="1"
     objecttolerance="10"
     gridtolerance="10"
     guidetolerance="10"
     inkscape:pageopacity="0"
     inkscape:pageshadow="2"
     inkscape:window-width="1087"
     inkscape:window-height="480"
     id="namedview6"
     showgrid="false"
     inkscape:zoom="4.9166667"
     inkscape:cx="2.1355932"
     inkscape:cy="24"
     inkscape:window-x="0"
     inkscape:window-y="25"
     inkscape:window-maximized="0"
     inkscape:current-layer="svg4" />
  <path
     d="M 6.34,0.07 A 6.29,6.29 0 0 0 0.05,6.37 6.29,6.29 0 0 0 6.35,12.65 6.29,6.29 0 0 0 12.63,6.36 6.29,6.29 0 0 0 6.34,0.07 Z M 6.33,1.01 a 5.4,5.4 0 0 1 5.4,5.4 5.4,5.4 0 0 1 -5.4,5.41 A 5.4,5.4 0 0 1 0.92,6.42 5.4,5.4 0 0 1 6.32,1 Z m -0.1,0.6 a 4.74,4.74 0 0 0 -4.62,4.77 4.74,4.74 0 0 0 9.48,0 A 4.74,4.74 0 0 0 6.24,1.6 Z m 0.11,0.9 a 3.86,3.86 0 1 1 0,7.72 3.86,3.86 0 0 1 0,-7.72 z M 6.77,3.38 A 0.1,0.1 0 0 0 6.71,3.4 C 6.53,3.79 6.63,4.24 6.55,4.65 L 6.4,6.66 C 5.36,6.2 3.78,6.9 4,7.74 4.08,8.54 5.69,8.99 6.61,8.44 7.47,7.91 7.17,7.04 7.28,6.34 L 7.39,4.46 C 7.84,4.88 8.47,5.47 7.92,5.98 7.53,6.21 7.87,6.73 8.37,6.52 9.23,6.07 9.24,5.12 8.57,4.59 8.07,4.19 7.5,3.84 6.95,3.47 6.9,3.45 6.84,3.39 6.77,3.38 Z"
     id="path2"
     inkscape:connector-curvature="0"
     style="fill:#963996" />
</svg>
